X:1
T:Russian Sailor's Dance
T:Russian Sailor's Dance
T:Wind Ensemble Audition Piece
T:Reinold Gliere
C:Reinold Gliere
%%score 1 2 3
L:1/8
Q:1/4=90
M:2/4
K:Db
V:1 treble transpose=-2 nm="B♭ Clarinet" snm="B♭ Cl."
V:2 treble nm="Oboe" snm="Ob."
V:3 treble nm="Flute" snm="Fl."
V:1
[K:Eb] c/d/e/f/ g/a/b/c'/ | b/a/g/f/ e/d/e/c/ | d/e/f/g/ a/f/e/d/ | e/d/c/d/ e/f/g/ z/ | %4
 a/g/b/a/ g/f/e/d/ | e/d/c/d/ e/f/g/e/ | a/g/f/e/ d/f/e/d/ | c/d/e/f/ g/a/b/ z/ | %8
 a/g/b/a/ g/e/d/c/ | e/d/c/d/ e/f/g/e/ | a/g/f/e/ d/f/e/d/ | c/g/e/d/ c2 |[Q:1/4=120] z c' z c' | %13
 z g c'b | z a c'a | z g c'g | z =a z _a | z g gg | z ^f z g | z g gg | z =a z _a | z g gg | %22
 z ^f z g | z g c' z |] %24
V:2
 b2 b2 | f/g/ a2 f | ge b2 | f d2 d | e2 e2 | B/c/ d2 d |{/d} cB cd | B2 B2 | e2 e2 | B/c/ d2 d | %10
{/d} cB cd | B2 B2 | z b z b | z f ba | z g bg | z f bf | z =g z _g | z f ff | z =e z f | z d dd | %20
 z =g z _g | z f ff | z =e z f | z f b z |] %24
V:3
 b2 b2 | f/g/ a2 f | ge b2 | f d2 d' | e'2 e'2 | b/c'/ d'2 d' |{/d'} c'b c'd' | b2 b2 | e'2 e'2 | %9
 b/c'/ d'2 d' |{/d'} c'b c'd' | b2 b2 | z =d' z d' | z =d' d'd' | z e' g'e' | z d' d'd' | %16
 z e' z e' | z d' d'd' | z =e' z f' | z d' d'd' | z e' z e' | z d' d'd' | z =e' z f' | z f b z |] %24

